svg/icon/edoge.svg

<svg height="32" viewBox="0 0 32 32" width="32" xmlns="http://www.w3.org/2000/svg" xmlns:xlink="http://www.w3.org/1999/xlink"><defs><linearGradient id="a" x1="50%" x2="50%" y1="0%" y2="100%"><stop offset="0" stop-color="#fff" stop-opacity=".5"/><stop offset="1" stop-opacity=".5"/></linearGradient><circle id="b" cx="16" cy="15" r="15"/><filter id="c" height="111.7%" width="111.7%" x="-5.8%" y="-4.2%"><feOffset dy=".5" in="SourceAlpha" result="shadowOffsetOuter1"/><feGaussianBlur in="shadowOffsetOuter1" result="shadowBlurOuter1" stdDeviation=".5"/><feComposite in="shadowBlurOuter1" in2="SourceAlpha" operator="out" result="shadowBlurOuter1"/><feColorMatrix in="shadowBlurOuter1" values="0 0 0 0 0   0 0 0 0 0   0 0 0 0 0  0 0 0 0.199473505 0"/></filter><path id="d" d="m9.47149597 8.01564778h5.43166753c2.1535262 0 3.2243303-.06791573 4.8307171.07923502 1.6063868.16978933 3.2127736.82630807 4.2528801 2.0827491 1.2250144 1.4601882 1.5832734 3.4297445 1.5023762 5.2634692-.0808972 1.8224055-.7049611 3.7353652-2.1379968 4.980487-1.2712414 1.1432481-3.0509792 1.5620618-4.7382632 1.5733811-3.282114.0113193-6.5526713 0-9.8347853 0-.35825892-.0226386-.7627448.0113193-1.04010655-.2377051-.48538306-.4867294-.19646457-1.5281039.57783698-1.4828268 1.82596487-.0565964 3.66348637 0 5.48945127-.0339578-.0346702-1.5394233-.0115568-3.0788465-.0115568-4.6069505-1.4099222-.0113193-2.8082877 0-4.21820987 0-.31203197-.0113193-.65873415-.0113193-.90142568-.2150665-.28891849-.2603436-.28891849-.7017959-.16179435-1.0413745.16179435-.3735365.60095045-.4414523.97076611-.4414523 1.43303569-.0113193 2.87762809 0 4.31066379 0 .0231135-1.4035918-.0231134-2.8071836.0231135-4.19945605-1.6063868-.01131929-3.2127736 0-4.81916035 0-.35825892-.01131929-.7627448-.01131929-1.04010655-.26034364-.28891848-.37353652-.23113479-.90554308.01155674-1.27907961.46226958-.22638577.9938796-.18110862 1.50237613-.18110862zm6.33309323 5.91998792c.6587342.0113193 1.3174683-.0452771 1.9762025.0452772.7858582.1131929.7858582 1.4941461-.0115568 1.607339-.6471774.1018736-1.3174683.0339578-1.9762024.0452771.0115567 1.3356761 0 2.6600328 0 3.9957089.0115567.2263858.0231134.5659644.3120319.588603.7858583.0679157 1.4705048.0452771 2.3575749.0452771 1.3174683.0565965 2.704277-.3508979 3.6288162-1.3130374.9476526-1.0074167 1.2943548-2.4110085 1.3174683-3.7466846.0346702-1.4828268-.2426916-3.1128043-1.3290251-4.2220946-.9823228-.9960974-2.4615855-1.33567606-3.8368375-1.25644104-.7839622 0-1.4561491-.02263857-2.1842237.04527716-.2311348.06791573-.2426916.35089798-.2542483.55464518z"/><filter id="e" height="125%" width="119.4%" x="-9.7%" y="-8.9%"><feOffset dy=".5" in="SourceAlpha" result="shadowOffsetOuter1"/><feGaussianBlur in="shadowOffsetOuter1" result="shadowBlurOuter1" stdDeviation=".5"/><feColorMatrix in="shadowBlurOuter1" values="0 0 0 0 0   0 0 0 0 0   0 0 0 0 0  0 0 0 0.204257246 0"/></filter></defs><g fill="none" fill-rule="nonzero"><g><use fill="#000" filter="url(#c)" xlink:href="#b"/><use fill="#0facf3" fill-rule="evenodd" xlink:href="#b"/><use fill="url(#a)" fill-rule="evenodd" xlink:href="#b"/><circle cx="16" cy="15" r="14.5" stroke="#000" stroke-opacity=".097"/></g><g><use fill="#000" filter="url(#e)" xlink:href="#d"/><use fill="#fff" fill-rule="evenodd" xlink:href="#d"/></g></g></svg>

<svg xmlns="http://www.w3.org/2000/svg" xmlns:xlink="http://www.w3.org/1999/xlink" width="32" height="32" viewBox="0 0 32 32">
  <defs>
    <linearGradient id="edoge-c" x1="50%" x2="50%" y1="0%" y2="100%">
      <stop offset="0%" stop-color="#FFF" stop-opacity=".5"/>
      <stop offset="100%" stop-opacity=".5"/>
    </linearGradient>
    <circle id="edoge-b" cx="16" cy="15" r="15"/>
    <filter id="edoge-a" width="111.7%" height="111.7%" x="-5.8%" y="-4.2%" filterUnits="objectBoundingBox">
      <feOffset dy=".5" in="SourceAlpha" result="shadowOffsetOuter1"/>
      <feGaussianBlur in="shadowOffsetOuter1" result="shadowBlurOuter1" stdDeviation=".5"/>
      <feComposite in="shadowBlurOuter1" in2="SourceAlpha" operator="out" result="shadowBlurOuter1"/>
      <feColorMatrix in="shadowBlurOuter1" values="0 0 0 0 0   0 0 0 0 0   0 0 0 0 0  0 0 0 0.199473505 0"/>
    </filter>
    <path id="edoge-e" d="M9.47149597,8.01564778 L14.9031635,8.01564778 C17.0566897,8.01564778 18.1274938,7.94773205 19.7338806,8.0948828 C21.3402674,8.26467213 22.9466542,8.92119087 23.9867607,10.1776319 C25.2117751,11.6378201 25.5700341,13.6073764 25.4891369,15.4411011 C25.4082397,17.2635066 24.7841758,19.1764663 23.3511401,20.4215881 C22.0798987,21.5648362 20.3001609,21.9836499 18.6128769,21.9949692 C15.3307629,22.0062885 12.0602056,21.9949692 8.7780916,21.9949692 C8.41983268,21.9723306 8.0153468,22.0062885 7.73798505,21.7572641 C7.25260199,21.2705347 7.54152048,20.2291602 8.31582203,20.2744373 C10.1417869,20.2178409 11.9793084,20.2744373 13.8052733,20.2404795 C13.7706031,18.7010562 13.7937165,17.161633 13.7937165,15.633529 C12.3837943,15.6222097 10.9854288,15.633529 9.57550663,15.633529 C9.26347466,15.6222097 8.91677248,15.6222097 8.67408095,15.4184625 C8.38516246,15.1581189 8.38516246,14.7166666 8.5122866,14.377088 C8.67408095,14.0035515 9.11323705,13.9356357 9.48305271,13.9356357 C10.9160884,13.9243164 12.3606808,13.9356357 13.7937165,13.9356357 C13.81683,12.5320439 13.7706031,11.1284521 13.81683,9.73617965 C12.2104432,9.72486036 10.6040564,9.73617965 8.99766965,9.73617965 C8.63941073,9.72486036 8.23492485,9.72486036 7.9575631,9.47583601 C7.66864462,9.10229949 7.72642831,8.57029293 7.96911984,8.1967564 C8.43138942,7.97037063 8.96299944,8.01564778 9.47149597,8.01564778 Z M15.8045892,13.9356357 C16.4633234,13.946955 17.1220575,13.8903586 17.7807917,13.9809129 C18.5666499,14.0941058 18.5666499,15.475059 17.7692349,15.5882519 C17.1220575,15.6901255 16.4517666,15.6222097 15.7930325,15.633529 C15.8045892,16.9692051 15.7930325,18.2935618 15.7930325,19.6292379 C15.8045892,19.8556237 15.8161459,20.1952023 16.1050644,20.2178409 C16.8909227,20.2857566 17.5755692,20.263118 18.4626393,20.263118 C19.7801076,20.3197145 21.1669163,19.9122201 22.0914555,18.9500806 C23.0391081,17.9426639 23.3858103,16.5390721 23.4089238,15.203396 C23.443594,13.7205692 23.1662322,12.0905917 22.0798987,10.9813014 C21.0975759,9.985204 19.6183132,9.64562534 18.2430612,9.72486036 C17.459099,9.72486036 16.7869121,9.70222179 16.0588375,9.77013752 C15.8277027,9.83805325 15.8161459,10.1210355 15.8045892,10.3247827 L15.8045892,13.9356357 Z"/>
    <filter id="edoge-d" width="119.4%" height="125%" x="-9.7%" y="-8.9%" filterUnits="objectBoundingBox">
      <feOffset dy=".5" in="SourceAlpha" result="shadowOffsetOuter1"/>
      <feGaussianBlur in="shadowOffsetOuter1" result="shadowBlurOuter1" stdDeviation=".5"/>
      <feColorMatrix in="shadowBlurOuter1" values="0 0 0 0 0   0 0 0 0 0   0 0 0 0 0  0 0 0 0.204257246 0"/>
    </filter>
  </defs>
  <g fill="none" fill-rule="evenodd">
    <g fill-rule="nonzero">
      <use fill="#000" filter="url(#edoge-a)" xlink:href="#edoge-b"/>
      <use fill="#0FACF3" fill-rule="evenodd" xlink:href="#edoge-b"/>
      <use fill="url(#edoge-c)" fill-rule="evenodd" style="mix-blend-mode:soft-light" xlink:href="#edoge-b"/>
      <circle cx="16" cy="15" r="14.5" stroke="#000" stroke-opacity=".097"/>
    </g>
    <g fill-rule="nonzero">
      <use fill="#000" filter="url(#edoge-d)" xlink:href="#edoge-e"/>
      <use fill="#FFF" fill-rule="evenodd" xlink:href="#edoge-e"/>
    </g>
  </g>
</svg>
